X:1
T:F minor Daniel Belknap, 1802
T:Isaac Watts, 1719 (Psalm 51, Part 2)   88. 88. (L. M.)
T:Springfield
T:Transcribed from The Village Compilation, 1806.
%%score [ 1 2 3 4 ]
L:1/8
M:4/4
K:Ab
V:1 treble nm="Treble" snm="Tr."
V:2 treble nm="Counter" snm="C."
V:3 treble-8 nm="Tenor" snm="T."
V:4 bass nm="Bass" snm="B."
V:1
 (A3 B) | c2 B2 A2 AB | (c2 B2 A2) B2 | c6 f2 | e2 c2 AB c2 | f4 e4 | e8 | c4 c2 c2 | c6 c2 | %9
w: 1.~Lord, *|I am vile, con- *|ceived * * in|sin; And|born un- ho- * ly|and un-|clean;|Sprung from the|man whose|
 (B2 c2 c2) c2 | c6 e2 | f2 ed c>B AB | c4 c4 | c8 | z4 c4 | (A3 B c2) c2 | c2 f2 c2 d2 | e6 ed | %18
w: guil- * * ty|fall Cor-|rupts the * race, * and *|taints us|all.|No|blee- * * ding|bird, nor blee- ding|beast, Nor *|
 c>d cA B2 AG | A>B c2 c4- | c4 c4 | c>d ed c2 A2 | B2 B2 e4- | e4 c4 | c2 c2 f2 ed | c4 c4 | c8 |] %27
w: hys- * sop * branch, nor *|sprink- * ling priest,|* Nor|run- * ning * brook, nor|flood, nor sea,|* Can|wash the dis- mal *|stain a-|way.|
V:2
 F4 | F2 G2 A2 A2 | (E4 F2) A2 | G6 G2 | GF E2 F2 FG | A4 A4 | G8 | F4 A2 A2 | A6 A2 | F4 F4 | %10
w: 2.~~Soon|as we draw our|in- * fant|breath, The|seeds * of sin grow *|up for|death;|Thy law de-|mands a|per- fect|
 E6 G2 | F2 B2 A2 E2 | F4 =E4 | F8 | z4 F4 | F6 F2 | F2 A2 A2 A2 | G6 G2 | F2 F2 G2 F2 | %19
w: heart, But|we're de- filed in|eve- ry|part.|Be-|hold, I|fall be- fore thy|face; My|on- ly re- fuge|
 F>E FG A4- | A4 F4 | G>F EF G2 A2 | G2 G2 G4- | G4 E4 | A2 A2 A2 AG | E4 E4 | F8 |] %27
w: is * thy * grace;|* No|out- * ward * forms can|make me clean~–|* The|le- pro- sy lies *|deep with-|in.|
V:3
 (c3 B) | A2 Bc d2 cB | (A2 B2 c2) f2 | e6 d2 | c2 c2 d2 cB | A4 c4 | B8 | (A2 c2) f2 f2 | e6 c2 | %9
w: 3.~~Great *|God, cre- * ate my *|heart * * a-|new; And|form my spi- rit *|pure and|true;|O * make me|wise be-|
 (d2 c2 B2) A2 | G6 G2 | A2 B2 c>f cB | A4 G4 | F8 | z4 c4 | (c3 B A2) c2 | f2 cB A2 B2 | c6 c2 | %18
w: times * * to|spy My|dan- ger and * my *|rem- e-|dy.|While|guilt * * dis-|turbs and * breaks my|peace, Nor|
 A>B cd e2 c2 | f>g f=e f4- | f4 c4 | e>d c=B c2 c2 | d>c BA B4- | B4 c4 | f>e fg f2 cB | A4 G4 | %26
w: flesh * nor * soul hath|rest * or * ease;|* Lord,|let * me * hear thy|par- * doning * voice,|* And|make * my * bro- ken *|bones re-|
 F8 |] %27
w: joice.|
V:4
 F,4 | F,2 =E,2 F,2 F,G, | (A,2 G,2 F,2) F,2 | C,6 B,,2 | C,2 C,2 F,2 A,G, | F,4 A,4 | E,8 | %7
 F,4 F,2 F,G, | A,6 A,2 | (B,2 A,2 G,2) F,2 | C,6 C,2 | F,2 G,2 A,2 A,G, | F,4 C,4 | F,8 | z4 F,4 | %15
 F,6 F,2 | F,2 F,G, A,2 G,F, | C,6 C,2 | F,2 F,2 E,2 F,2 | F,2 C,2 F,4- | F,4 F,4 | %21
 C,2 C,2 C,2 F,2 | E,2 E,2 E,4- | E,4 A,4 | F,2 F,2 F,2 A,B, | C4 C,4 | F,8 |] %27

